X: 438
T: Mitzvo Tants mit der Kale
T: Bukoviner freylachs
Z: John Chambers <jc:trillian.mit.edu>
M: 2/4
L: 1/16
K: Dphr^F
|: "D"D4 "(Cm)"EDEC \
| "D"D2D2 "(Cm)"EDEC \
| "D"D2E2 F2G2 \
| F3E "(Cm)"FEDC \
| "D"D4 "(Cm)"EDEC \
| "D"D2D2 "(Cm)"EDEC 
| "Cm"=B,CDE F3E \
| "D"{E}D8 :| \
[K:C=B=e=F] \
[K:C]\
|: "C"=E6DC \
| DE C6 \
| EFEF E2DC \
| DE C6 
| "C"E6DC \
| "D"D4 A2G2 \
| ^F2F2 "Cm"_EDEC \
| "D"D8 :| \
[K:Dphr^F] \
|: "D"F8 \
| A8 \
| d4 A4 \
| F4 D4 
| "D"F2DF E2D2 \
| F2DF E2D2 \
| "D7"z2D2 FDFA \
| "Gm"G6 G2 \
| "D"F4 "Cm"E4 \
| "D"D4 "Cm"C4 \
| =B,CDE F3E \
| "D"{E}D8 :|



